X: 6296
T: Carraigban
R: jig
M: 6/8
K: Aminor
EAc BcA|edB GAB|EAc BcA|edB ~A2 G|
EAc BGG|edB ~G2 G|~A2 A Bed|edB ~A3:|
|:EAc ~d2 d|ede ~a2 b|c'ba bag|eag edB|
EAc ~d2 d|ede ~a2 c'|bag age|edB ~A2G:|

